!!!!SEGMENT: pl-wn--sd-xvi-qu-273--150_gomolka-mikolaj--chwalcie-pana-z-jego-swiatobliwosci.krn
!!!cenid: 15xx:355
!!!COM: Gomółka, Mikołaj
!!!COM-rismid: pe30013343
!!!CDT: ~1535->1591/04/30
!!!CNT: Polish
!!!GTL: Melodiae na psalterz polski
!!!OTL: CL. Chwalcie Pana z Jego świątobliwości,
!!!PDT: 1580
!!!AGN: Sacred
!!!SMS-siglum: PL-Wn
!!!SMS-shelfmark: SD XVI.Qu.273
!!!SMS-shelfwork: 151 G
!!!NIFC-rismid:
!!!ONB-nifc: Melodiae na psalterz polski
**kern	**text	**kern	**text	**kern	**text	**kern	**text
*part4	*part4	*part3	*part3	*part2	*part2	*part1	*part1
*staff4	*staff4	*staff3	*staff3	*staff2	*staff2	*staff1	*staff1
*clefF3	*	*clefC3	*	*clefC1	*	*clefG2	*
*k[]	*	*k[]	*	*k[]	*	*k[]	*
*G:	*	*G:	*	*G:	*	*G:	*
*M4/2	*	*M4/2	*	*M4/2	*	*M4/2	*
*met(C|)	*	*met(C|)	*	*met(C|)	*	*met(C|)	*
=1	=1	=1	=1	=1	=1	=1	=1
1D	Chwał-	1f	Chwał-	1a	Chwál-	1dd	Chwał-
2D	-cie	2f	-ćie	2a	-ćie	2dd	-ćie
2D	pá-	2f	pa-	2a	pá-	2dd	pá-
=2-	=2	=2	=2	=2	=2	=2	=2
2.G	-ná	2g	-ná	1b	-ná_ӡ_ie-	2dd	-ná
.	.	2g	ӡ_ie-	.	.	2dd	ӡ_ie-
4A	ӡ_ie-	.	.	.	.	.	.
4B	-go	2g	-go	2b	-go	2dd	-go
4c	.	.	.	.	.	.	.
2d	świę-	2f	świę-	4a	świę-	2ff	świę-
.	.	.	.	4b	.	.	.
=3-	=3	=3	=3	=3	=3	=3	=3
2c	-tob-	2g	-tob-	2cc	-tob-	2ee	-tob-
2C	-li-	2g	-li-	1cc	-li_woś-	1ee	-li_woś-
1G	-woś_ći/	2.g	-woś-	.	.	.	.
.	.	.	.	2b	-ći/	2dd	-ći/
.	.	4f	-ći/	.	.	.	.
=4-	=4	=4	=4	=4	=4	=4	=4
2C	Chwal-	4e	Chwal-	2cc	Chwal-	2ee	Chwal-
.	.	4f	.	.	.	.	.
2G	-ćie	2g	-ćie	2b	-ćie	2dd	-ćie
2F#X/	pá-	2d	pá-	2a	pá-	2dd	pá-
2G	-ná	2g	-ná	2b	-ná	2dd	-ná
=5-	=5	=5	=5	=5	=5	=5	=5
2D	ӡ_ie-	2f#X	ӡ_ie-	2a	ӡ_ie-	2dd	ӡ_ie-
2G	-go	2g	-go	2b	-go	2dd	-go
!!LO:PB:g=original
2G	wiel-	2g	wiel-	2b	wiel-	2dd	wiel-
4C	-ťiéy	1g	-ťiéy_moʒ-̇	1cc	-ťiéy_moʒ̇	1ee	-ťiéy_moʒ̇
4D	.	.	.	.	.	.	.
=6-	=6	=6	=6	=6	=6	=6	=6
4E	moʒ̇-	.	.	.	.	.	.
4F/	.	.	.	.	.	.	.
2G	(noś	4g	noś	2b	(noś-	2dd	(noś-
.	.	4f	.	.	.	.	.
2A	ći)	2e	ći:	2a	ći)	1cc	-ći)_Chwal-
1A	Chwal-	2c/	Chwal-	2a	Chwal-	.	.
=7-	=7	=7	=7	=7	=7	=7	=7
.	-ćie	4d	-(ćie)	1dd	(ćie)ӡ_mo-	1b	-(ćie)ӡ_mo-
.	.	4c	.	.	.	.	.
2G#X	ӡ_mo-	4d	ӡ_mo	.	.	.	.
.	.	4e	.	.	.	.	.
2A	-(cy)	2f	cy/	2cc	-(cy)	2a	-(cy)
2d	ch(wal-	2f	chwal-	2dd	chwal-	2a	ch(wal-
=8-	=8	=8	=8	=8	=8	=8	=8
2c#X	-cie)	2e	-(cie)	2ee	-(cie)	2a	-cie)
2d	go	2f	go	4dd	go	2a	go
.	.	.	.	4cc	.	.	.
1G	Ӡ_dʒ́i(w_nej)_w(iel-	2.g	Ӡ_dʒ́i(w_nej)	4b	Ӡ_dʒ́i(w-	4b	Ӡ_dʒ́i(w-
.	.	.	.	4a	-nej)	4cc	-nej)
.	.	.	.	2b	wiel-	1dd	w(iel_ťoś
.	.	4f	wiel-	.	.	.	.
=9-	=9	=9	=9	=9	=9	=9	=9
1A	-ťoś_ci)	4e	-ťoś	2.a	-(ťoś-	.	.
.	.	4d	.	.	.	.	.
.	.	2e	ci	.	.	2cc	ci)
.	.	.	.	4g/	-ci)	.	.
!'ogonek po lewej stronie'	!	!	!	!	!	!	!
!!LO:N:vis=00
1D/	ie_go.	1d	ie_go.	1f#X/	ie_go.	1dd	ie_go.
=	==	==	==	==	==	==	==
*-	*-	*-	*-	*-	*-	*-	*-
!!!RDF**kern: l = terminal long
!!!system-decoration: s1,s2,s3,s4
!!!ENC:Anna Matuszewska
!!!END:2020-02-25
!!!URL-scan: https://polona.pl/item/melodiae-na-psalterz-polski,Nzk3MTM4ODQ/353 Scan on Polona
!!!IIIF: https://polona.pl/iiif/item/Nzk3MTM4ODQ/manifest.json
